X:890
T: Stone Church
S: B.Breathnach:"Ceol Rince na hEireann" IV/86 (gan ainm)
Z: B.Black
L: 1/8
N: N.B. No repeats
M: 2/4
Q: 280
R: polka
K: G
a/g/|fA gA|aA f2|ed/e/ fe|df a/b/a/g/|
fA gA|aA f2|ed/e/ fe|d2 d2 ||
de/f/ ge/g/|e/d/B BG|A2 AG/A/|dfB G2|
de/f/ ge/g/|e/d/B BG|eg fa|g2 g2 ||
